9-regular-expressions/06-regexp-boundary/hello-java-boundaries.svg

<?xml version="1.0" encoding="UTF-8"?>
<svg width="245px" height="74px" viewBox="0 0 245 74" version="1.1" xmlns="http://www.w3.org/2000/svg" xmlns:xlink="http://www.w3.org/1999/xlink">
    <!-- Generator: sketchtool 61.2 (101010) - https://sketch.com -->
    <title>hello-java-boundaries.svg</title>
    <desc>Created with sketchtool.</desc>
    <g id="regexp" stroke="none" stroke-width="1" fill="none" fill-rule="evenodd">
        <g id="hello-java-boundaries.svg" fill-rule="nonzero">
            <path d="M30.054,53.938 L23.146,53.938 L23.146,61 L21.32,61 L21.32,45.6 L23.146,45.6 L23.146,52.31 L30.054,52.31 L30.054,45.6 L31.88,45.6 L31.88,61 L30.054,61 L30.054,53.938 Z M49.4213333,59.614 C49.157332,59.8486678 48.8456685,60.0686656 48.4863333,60.274 C48.1269982,60.4793344 47.7346688,60.6553326 47.3093333,60.802 C46.8839979,60.9486674 46.4403356,61.0623329 45.9783333,61.143 C45.516331,61.2236671 45.050669,61.264 44.5813333,61.264 C43.7013289,61.264 42.9240034,61.1283347 42.2493333,60.857 C41.5746633,60.5856653 41.0100023,60.1970025 40.5553333,59.691 C40.1006644,59.1849975 39.7560012,58.5800035 39.5213333,57.876 C39.2866655,57.1719965 39.1693333,56.3800044 39.1693333,55.5 C39.1693333,54.5759954 39.2976654,53.7546703 39.5543333,53.036 C39.8110013,52.3173297 40.1813309,51.7160024 40.6653333,51.232 C41.1493358,50.7479976 41.7359966,50.377668 42.4253333,50.121 C43.1146701,49.8643321 43.8846624,49.736 44.7353333,49.736 C45.3513364,49.736 45.959997,49.8166659 46.5613333,49.978 C47.1626697,50.1393341 47.694331,50.4436644 48.1563333,50.891 C48.6183356,51.3383356 48.9739988,51.9543294 49.2233333,52.739 C49.4726679,53.5236706 49.560667,54.5393271 49.4873333,55.786 L40.9733333,55.786 C40.9733333,57.1060066 41.3289964,58.0923301 42.0403333,58.745 C42.7516702,59.3976699 43.7013274,59.724 44.8893333,59.724 C45.2853353,59.724 45.6776647,59.6763338 46.0663333,59.581 C46.4550019,59.4856662 46.8253316,59.3720007 47.1773333,59.24 C47.5293351,59.1079993 47.8409986,58.9613341 48.1123333,58.8 C48.383668,58.6386659 48.5926659,58.4920007 48.7393333,58.36 L49.4213333,59.614 Z M44.7793333,51.188 C44.2953309,51.188 43.8370022,51.2393328 43.4043333,51.342 C42.9716645,51.4446672 42.590335,51.6169988 42.2603333,51.859 C41.9303317,52.1010012 41.6590011,52.4163314 41.4463333,52.805 C41.2336656,53.1936686 41.0980003,53.6739971 41.0393333,54.246 L47.8813333,54.246 C47.8079996,53.2779952 47.4963361,52.526336 46.9463333,51.991 C46.3963306,51.455664 45.6740045,51.188 44.7793333,51.188 Z M58.1846667,45.6 L61.8366667,45.6 L61.8366667,57.304 C61.8366667,58.1986711 61.9869985,58.8293315 62.2876667,59.196 C62.5883348,59.5626685 63.0319971,59.746 63.6186667,59.746 C64.0293354,59.746 64.4216648,59.6726674 64.7956667,59.526 C65.1696685,59.3793326 65.5839977,59.1300018 66.0386667,58.778 L66.8306667,59.988 C66.5959988,60.1933344 66.3393347,60.3766659 66.0606667,60.538 C65.7819986,60.6993341 65.4960015,60.8349994 65.2026667,60.945 C64.9093319,61.0550006 64.6160015,61.139333 64.3226667,61.198 C64.0293319,61.256667 63.7580012,61.286 63.5086667,61.286 C62.9659973,61.286 62.4820021,61.216334 62.0566667,61.077 C61.6313312,60.937666 61.2756681,60.7140015 60.9896667,60.406 C60.7036652,60.0979985 60.4873341,59.6910025 60.3406667,59.185 C60.1939993,58.6789975 60.1206667,58.0520037 60.1206667,57.304 L60.1206667,47.074 L58.1846667,47.074 L58.1846667,45.6 Z M75.968,45.6 L79.62,45.6 L79.62,57.304 C79.62,58.1986711 79.7703318,58.8293315 80.071,59.196 C80.3716682,59.5626685 80.8153304,59.746 81.402,59.746 C81.8126687,59.746 82.2049981,59.6726674 82.579,59.526 C82.9530019,59.3793326 83.3673311,59.1300018 83.822,58.778 L84.614,59.988 C84.3793322,60.1933344 84.1226681,60.3766659 83.844,60.538 C83.5653319,60.6993341 83.2793348,60.8349994 82.986,60.945 C82.6926652,61.0550006 82.3993348,61.139333 82.106,61.198 C81.8126652,61.256667 81.5413346,61.286 81.292,61.286 C80.7493306,61.286 80.2653355,61.216334 79.84,61.077 C79.4146645,60.937666 79.0590014,60.7140015 78.773,60.406 C78.4869986,60.0979985 78.2706674,59.6910025 78.124,59.185 C77.9773326,58.6789975 77.904,58.0520037 77.904,57.304 L77.904,47.074 L75.968,47.074 L75.968,45.6 Z M92.3873333,55.5 C92.3873333,53.7253245 92.8493287,52.3210052 93.7733333,51.287 C94.697338,50.2529948 96.0173248,49.736 97.7333333,49.736 C98.657338,49.736 99.4529967,49.8863318 100.120333,50.187 C100.78767,50.4876682 101.341331,50.8946641 101.781333,51.408 C102.221336,51.9213359 102.547666,52.5299965 102.760333,53.234 C102.973001,53.9380035 103.079333,54.6933293 103.079333,55.5 C103.079333,56.3800044 102.962001,57.1756631 102.727333,57.887 C102.492665,58.5983369 102.148002,59.2033308 101.693333,59.702 C101.238664,60.2006692 100.67767,60.5856653 100.010333,60.857 C99.3429967,61.1283347 98.5840043,61.264 97.7333333,61.264 C96.8239955,61.264 96.0320034,61.1136682 95.3573333,60.813 C94.6826633,60.5123318 94.1253355,60.1053359 93.6853333,59.592 C93.2453311,59.0786641 92.9190011,58.4700035 92.7063333,57.766 C92.4936656,57.0619965 92.3873333,56.3066707 92.3873333,55.5 Z M94.2133333,55.5 C94.2133333,56.0133359 94.275666,56.5266641 94.4003333,57.04 C94.5250006,57.5533359 94.7266653,58.0153313 95.0053333,58.426 C95.2840014,58.8366687 95.6469978,59.1666654 96.0943333,59.416 C96.5416689,59.6653346 97.0879968,59.79 97.7333333,59.79 C98.9066725,59.79 99.7903304,59.4270036 100.384333,58.701 C100.978336,57.9749964 101.275333,56.908007 101.275333,55.5 C101.275333,54.9719974 101.213001,54.4550025 101.088333,53.949 C100.963666,53.4429975 100.758335,52.9846687 100.472333,52.574 C100.186332,52.1633313 99.8196689,51.8333346 99.3723333,51.584 C98.9249978,51.3346654 98.3786699,51.21 97.7333333,51.21 C96.5599941,51.21 95.6800029,51.5693297 95.0933333,52.288 C94.5066637,53.0066703 94.2133333,54.0773262 94.2133333,55.5 Z M113.954667,59.79 C113.954667,59.3499978 114.097665,58.9943347 114.383667,58.723 C114.669668,58.4516653 115.039998,58.316 115.494667,58.316 C116.052003,58.316 116.484665,58.5103314 116.792667,58.899 C117.100668,59.2876686 117.254667,59.8339965 117.254667,60.538 C117.254667,61.1100029 117.159334,61.6123312 116.968667,62.045 C116.777999,62.4776688 116.539668,62.8443318 116.253667,63.145 C115.967665,63.4456682 115.659668,63.6876658 115.329667,63.871 C114.999665,64.0543342 114.695335,64.1899996 114.416667,64.278 L113.866667,63.42 C114.394669,63.2146656 114.849331,62.9213352 115.230667,62.54 C115.612002,62.1586648 115.802667,61.6966694 115.802667,61.154 C115.597332,61.1980002 115.436001,61.22 115.318667,61.22 C114.893331,61.22 114.559668,61.0990012 114.317667,60.857 C114.075665,60.6149988 113.954667,60.2593357 113.954667,59.79 Z M146.617333,45.6 L155.329333,45.6 L155.329333,55.544 C155.329333,57.3920092 154.889338,58.7999952 154.009333,59.768 C153.129329,60.7360048 151.860675,61.22 150.203333,61.22 C149.777998,61.22 149.360002,61.1833337 148.949333,61.11 C148.538665,61.0366663 148.157335,60.9376673 147.805333,60.813 C147.453332,60.6883327 147.149001,60.5526674 146.892333,60.406 C146.635665,60.2593326 146.448667,60.1200007 146.331333,59.988 L147.123333,58.536 C147.284667,58.6386672 147.464332,58.7486661 147.662333,58.866 C147.860334,58.9833339 148.080332,59.0969994 148.322333,59.207 C148.564335,59.3170006 148.835665,59.4086663 149.136333,59.482 C149.437002,59.5553337 149.777998,59.592 150.159333,59.592 C151.259339,59.592 152.091664,59.2473368 152.656333,58.558 C153.221003,57.8686632 153.503333,56.7540077 153.503333,55.214 L153.503333,47.228 L146.617333,47.228 L146.617333,45.6 Z M164.642667,50.858 C165.273336,50.4913315 165.984663,50.2273341 166.776667,50.066 C167.568671,49.9046659 168.345996,49.824 169.108667,49.824 C169.85667,49.824 170.468998,49.9413322 170.945667,50.176 C171.422336,50.4106678 171.796332,50.7149981 172.067667,51.089 C172.339001,51.4630019 172.522333,51.8883309 172.617667,52.365 C172.713,52.8416691 172.760667,53.3219976 172.760667,53.806 C172.760667,54.3633361 172.746,54.9573302 172.716667,55.588 C172.687333,56.2186698 172.665333,56.8493302 172.650667,57.48 C172.650667,58.213337 172.694666,58.9099967 172.782667,59.57 L174.256667,59.57 L174.256667,61 L171.330667,61 L171.132667,59.35 L171.022667,59.35 C170.934666,59.4820007 170.802668,59.6506656 170.626667,59.856 C170.450666,60.0613344 170.219668,60.262999 169.933667,60.461 C169.647665,60.659001 169.299335,60.8313326 168.888667,60.978 C168.477998,61.1246674 167.994003,61.198 167.436667,61.198 C166.351328,61.198 165.493336,60.9193361 164.862667,60.362 C164.231997,59.8046639 163.916667,59.0420048 163.916667,58.074 C163.916667,57.3259963 164.081665,56.7026692 164.411667,56.204 C164.741668,55.7053308 165.214664,55.324 165.830667,55.06 C166.44667,54.7959987 167.190996,54.6420002 168.063667,54.598 C168.936338,54.5539998 169.915328,54.6126659 171.000667,54.774 C171.074,54.09933 171.085,53.5383356 171.033667,53.091 C170.982333,52.6436644 170.865001,52.2880013 170.681667,52.024 C170.498332,51.7599987 170.241668,51.5730006 169.911667,51.463 C169.581665,51.3529994 169.174669,51.298 168.690667,51.298 C168.030663,51.298 167.400003,51.3896657 166.798667,51.573 C166.19733,51.7563343 165.662002,51.9433324 165.192667,52.134 L164.642667,50.858 Z M167.876667,59.724 C168.287335,59.724 168.668665,59.6580007 169.020667,59.526 C169.372668,59.3939993 169.680665,59.2253344 169.944667,59.02 C170.208668,58.8146656 170.428666,58.5910012 170.604667,58.349 C170.780668,58.1069988 170.912666,57.8760011 171.000667,57.656 L171.000667,56.116 C170.237996,55.9839993 169.534003,55.918 168.888667,55.918 C168.24333,55.918 167.686002,55.987666 167.216667,56.127 C166.747331,56.266334 166.380668,56.4826652 166.116667,56.776 C165.852665,57.0693348 165.720667,57.4506643 165.720667,57.92 C165.720667,58.4040024 165.885665,58.8256649 166.215667,59.185 C166.545668,59.5443351 167.099329,59.724 167.876667,59.724 Z M186.694,58.866 L186.936,58.866 L190.39,50 L192.304,50 L187.662,61 L185.726,61 L180.996,50 L183.02,50 L186.694,58.866 Z M200.209333,50.858 C200.840003,50.4913315 201.551329,50.2273341 202.343333,50.066 C203.135337,49.9046659 203.912663,49.824 204.675333,49.824 C205.423337,49.824 206.035664,49.9413322 206.512333,50.176 C206.989002,50.4106678 207.362999,50.7149981 207.634333,51.089 C207.905668,51.4630019 208.089,51.8883309 208.184333,52.365 C208.279667,52.8416691 208.327333,53.3219976 208.327333,53.806 C208.327333,54.3633361 208.312667,54.9573302 208.283333,55.588 C208.254,56.2186698 208.232,56.8493302 208.217333,57.48 C208.217333,58.213337 208.261333,58.9099967 208.349333,59.57 L209.823333,59.57 L209.823333,61 L206.897333,61 L206.699333,59.35 L206.589333,59.35 C206.501333,59.4820007 206.369334,59.6506656 206.193333,59.856 C206.017332,60.0613344 205.786335,60.262999 205.500333,60.461 C205.214332,60.659001 204.866002,60.8313326 204.455333,60.978 C204.044665,61.1246674 203.560669,61.198 203.003333,61.198 C201.917995,61.198 201.060003,60.9193361 200.429333,60.362 C199.798664,59.8046639 199.483333,59.0420048 199.483333,58.074 C199.483333,57.3259963 199.648332,56.7026692 199.978333,56.204 C200.308335,55.7053308 200.78133,55.324 201.397333,55.06 C202.013336,54.7959987 202.757662,54.6420002 203.630333,54.598 C204.503004,54.5539998 205.481995,54.6126659 206.567333,54.774 C206.640667,54.09933 206.651667,53.5383356 206.600333,53.091 C206.549,52.6436644 206.431668,52.2880013 206.248333,52.024 C206.064999,51.7599987 205.808335,51.5730006 205.478333,51.463 C205.148332,51.3529994 204.741336,51.298 204.257333,51.298 C203.59733,51.298 202.96667,51.3896657 202.365333,51.573 C201.763997,51.7563343 201.228669,51.9433324 200.759333,52.134 L200.209333,50.858 Z M203.443333,59.724 C203.854002,59.724 204.235332,59.6580007 204.587333,59.526 C204.939335,59.3939993 205.247332,59.2253344 205.511333,59.02 C205.775335,58.8146656 205.995332,58.5910012 206.171333,58.349 C206.347334,58.1069988 206.479333,57.8760011 206.567333,57.656 L206.567333,56.116 C205.804663,55.9839993 205.10067,55.918 204.455333,55.918 C203.809997,55.918 203.252669,55.987666 202.783333,56.127 C202.313998,56.266334 201.947335,56.4826652 201.683333,56.776 C201.419332,57.0693348 201.287333,57.4506643 201.287333,57.92 C201.287333,58.4040024 201.452332,58.8256649 201.782333,59.185 C202.112335,59.5443351 202.665996,59.724 203.443333,59.724 Z M221.314667,45.6 L223.140667,45.6 L223.140667,53.234 L222.766667,57.106 L221.688667,57.106 L221.314667,53.234 L221.314667,45.6 Z M220.940667,59.988 C220.940667,59.591998 221.054332,59.2803345 221.281667,59.053 C221.509001,58.8256655 221.813331,58.712 222.194667,58.712 C222.590669,58.712 222.905999,58.8256655 223.140667,59.053 C223.375335,59.2803345 223.492667,59.591998 223.492667,59.988 C223.492667,60.3693352 223.375335,60.6773322 223.140667,60.912 C222.905999,61.1466678 222.590669,61.264 222.194667,61.264 C221.813331,61.264 221.509001,61.1466678 221.281667,60.912 C221.054332,60.6773322 220.940667,60.3693352 220.940667,59.988 Z" id="Hello,Java!" fill="#8A704D"></path>
            <path id="Line" d="M17.5,8.5 L17.5,25.5 L23.5,25.5 L16.5,39.5 L9.5,25.5 L15.5,25.5 L15.5,8.5 L17.5,8.5 Z" fill="#EE6B47"></path>
            <path id="Line-2" d="M112.5,8.5 L112.5,25.5 L118.5,25.5 L111.5,39.5 L104.5,25.5 L110.5,25.5 L110.5,8.5 L112.5,8.5 Z" fill="#EE6B47"></path>
            <path id="Line-3" d="M144.5,8.5 L144.5,25.5 L150.5,25.5 L143.5,39.5 L136.5,25.5 L142.5,25.5 L142.5,8.5 L144.5,8.5 Z" fill="#EE6B47"></path>
            <path id="Line-4" d="M218.5,8.5 L218.5,25.5 L224.5,25.5 L217.5,39.5 L210.5,25.5 L216.5,25.5 L216.5,8.5 L218.5,8.5 Z" fill="#EE6B47"></path>
        </g>
    </g>
</svg>

<svg xmlns="http://www.w3.org/2000/svg" width="245" height="74" viewBox="0 0 245 74"><defs><style>@import url(https://fonts.googleapis.com/css?family=Open+Sans:bold,italic,bolditalic%7CPT+Mono);@font-face{font-family:&apos;PT Mono&apos;;font-weight:700;font-style:normal;src:local(&apos;PT MonoBold&apos;),url(/font/PTMonoBold.woff2) format(&apos;woff2&apos;),url(/font/PTMonoBold.woff) format(&apos;woff&apos;),url(/font/PTMonoBold.ttf) format(&apos;truetype&apos;)}</style></defs><g id="regexp" fill="none" fill-rule="evenodd" stroke="none" stroke-width="1"><g id="hello-java-boundaries.svg" fill-rule="nonzero"><path id="Hello,Java!" fill="#AF6E24" d="M30.054 53.938h-6.908V61H21.32V45.6h1.826v6.71h6.908V45.6h1.826V61h-1.826v-7.062zm19.367 5.676a5.537 5.537 0 01-.935.66 6.9 6.9 0 01-1.177.528c-.425.147-.869.26-1.33.341-.463.08-.928.121-1.398.121-.88 0-1.657-.136-2.332-.407a4.49 4.49 0 01-1.694-1.166 5.081 5.081 0 01-1.034-1.815c-.234-.704-.352-1.496-.352-2.376 0-.924.129-1.745.385-2.464.257-.719.627-1.32 1.111-1.804a4.839 4.839 0 011.76-1.111c.69-.257 1.46-.385 2.31-.385.616 0 1.225.08 1.826.242a3.606 3.606 0 011.595.913c.462.447.818 1.063 1.067 1.848.25.785.338 1.8.264 3.047h-8.514c0 1.32.356 2.306 1.067 2.959.712.653 1.661.979 2.85.979.395 0 .788-.048 1.176-.143a9.833 9.833 0 001.111-.341c.352-.132.664-.279.935-.44.272-.161.48-.308.627-.44l.682 1.254zm-4.642-8.426a5.94 5.94 0 00-1.375.154 3.134 3.134 0 00-1.144.517c-.33.242-.601.557-.814.946-.212.389-.348.869-.407 1.441h6.842c-.073-.968-.385-1.72-.935-2.255-.55-.535-1.272-.803-2.167-.803zM58.185 45.6h3.652v11.704c0 .895.15 1.525.45 1.892.301.367.745.55 1.332.55.41 0 .803-.073 1.177-.22.374-.147.788-.396 1.243-.748l.792 1.21a4.874 4.874 0 01-.77.55 5.717 5.717 0 01-1.738.66 4.17 4.17 0 01-.814.088c-.543 0-1.027-.07-1.452-.209a2.481 2.481 0 01-1.067-.671c-.286-.308-.503-.715-.65-1.221-.146-.506-.22-1.133-.22-1.881v-10.23h-1.935V45.6zm17.783 0h3.652v11.704c0 .895.15 1.525.451 1.892.3.367.744.55 1.331.55.41 0 .803-.073 1.177-.22.374-.147.788-.396 1.243-.748l.792 1.21a4.874 4.874 0 01-.77.55 5.717 5.717 0 01-1.738.66 4.17 4.17 0 01-.814.088c-.543 0-1.027-.07-1.452-.209a2.481 2.481 0 01-1.067-.671c-.286-.308-.502-.715-.649-1.221-.147-.506-.22-1.133-.22-1.881v-10.23h-1.936V45.6zm16.42 9.9c0-1.775.461-3.179 1.385-4.213.924-1.034 2.244-1.551 3.96-1.551.924 0 1.72.15 2.387.451.668.3 1.221.708 1.661 1.221.44.513.767 1.122.98 1.826.212.704.318 1.46.318 2.266 0 .88-.117 1.676-.352 2.387a4.959 4.959 0 01-1.034 1.815 4.569 4.569 0 01-1.683 1.155c-.667.271-1.426.407-2.277.407-.909 0-1.701-.15-2.376-.451a4.663 4.663 0 01-1.672-1.221 4.979 4.979 0 01-.979-1.826 7.799 7.799 0 01-.319-2.266zm1.825 0c0 .513.063 1.027.187 1.54.125.513.327.975.605 1.386.279.41.642.74 1.09.99.447.25.993.374 1.638.374 1.174 0 2.057-.363 2.651-1.089.594-.726.891-1.793.891-3.201a6.46 6.46 0 00-.187-1.551 4.098 4.098 0 00-.616-1.375 3.247 3.247 0 00-1.1-.99c-.447-.25-.993-.374-1.639-.374-1.173 0-2.053.36-2.64 1.078-.586.719-.88 1.79-.88 3.212zm19.742 4.29c0-.44.143-.796.429-1.067.286-.271.656-.407 1.11-.407.558 0 .99.194 1.299.583.308.389.462.935.462 1.639 0 .572-.096 1.074-.286 1.507a3.802 3.802 0 01-1.64 1.826c-.33.183-.634.319-.912.407l-.55-.858a3.904 3.904 0 001.364-.88c.381-.381.572-.843.572-1.386a2.463 2.463 0 01-.484.066c-.426 0-.76-.121-1.001-.363-.242-.242-.363-.598-.363-1.067zm32.662-14.19h8.712v9.944c0 1.848-.44 3.256-1.32 4.224-.88.968-2.148 1.452-3.806 1.452a7.12 7.12 0 01-1.254-.11 7.234 7.234 0 01-1.144-.297 5.646 5.646 0 01-.913-.407c-.256-.147-.443-.286-.56-.418l.791-1.452c.162.103.341.213.54.33.197.117.417.231.66.341a4.331 4.331 0 001.837.385c1.1 0 1.932-.345 2.496-1.034.565-.69.847-1.804.847-3.344v-7.986h-6.886V45.6zm18.026 5.258a6.988 6.988 0 012.134-.792c.792-.161 1.569-.242 2.332-.242.748 0 1.36.117 1.837.352.476.235.85.539 1.122.913.271.374.454.8.55 1.276.095.477.143.957.143 1.441 0 .557-.015 1.151-.044 1.782a81.5 81.5 0 00-.066 1.892c0 .733.044 1.43.132 2.09h1.474V61h-2.926l-.198-1.65h-.11c-.088.132-.22.3-.396.506a3.623 3.623 0 01-.693.605c-.286.198-.635.37-1.045.517-.411.147-.895.22-1.452.22-1.086 0-1.944-.279-2.574-.836-.631-.557-.946-1.32-.946-2.288 0-.748.165-1.371.495-1.87.33-.499.803-.88 1.419-1.144.616-.264 1.36-.418 2.233-.462.872-.044 1.851.015 2.937.176.073-.675.084-1.236.033-1.683-.052-.447-.169-.803-.352-1.067a1.474 1.474 0 00-.77-.561c-.33-.11-.737-.165-1.221-.165-.66 0-1.291.092-1.892.275-.602.183-1.137.37-1.606.561l-.55-1.276zm3.234 8.866c.41 0 .792-.066 1.144-.198.352-.132.66-.3.924-.506.264-.205.484-.429.66-.671.176-.242.308-.473.396-.693v-1.54a12.447 12.447 0 00-2.112-.198c-.646 0-1.203.07-1.672.209-.47.14-.836.356-1.1.649-.264.293-.396.675-.396 1.144 0 .484.165.906.495 1.265.33.36.883.539 1.66.539zm18.817-.858h.242L190.39 50h1.914l-4.642 11h-1.936l-4.73-11h2.024l3.674 8.866zm13.515-8.008a6.988 6.988 0 012.134-.792c.792-.161 1.57-.242 2.332-.242.748 0 1.36.117 1.837.352.477.235.851.539 1.122.913.272.374.455.8.55 1.276.096.477.143.957.143 1.441 0 .557-.014 1.151-.044 1.782-.029.63-.051 1.261-.066 1.892 0 .733.044 1.43.132 2.09h1.474V61h-2.926l-.198-1.65h-.11c-.088.132-.22.3-.396.506a3.623 3.623 0 01-.693.605c-.286.198-.634.37-1.045.517-.41.147-.894.22-1.452.22-1.085 0-1.943-.279-2.574-.836-.63-.557-.946-1.32-.946-2.288 0-.748.165-1.371.495-1.87.33-.499.803-.88 1.42-1.144.615-.264 1.36-.418 2.232-.462.873-.044 1.852.015 2.937.176.074-.675.085-1.236.033-1.683-.051-.447-.168-.803-.352-1.067a1.474 1.474 0 00-.77-.561c-.33-.11-.737-.165-1.22-.165-.66 0-1.291.092-1.893.275-.601.183-1.136.37-1.606.561l-.55-1.276zm3.234 8.866c.411 0 .792-.066 1.144-.198.352-.132.66-.3.924-.506.264-.205.484-.429.66-.671.176-.242.308-.473.396-.693v-1.54a12.447 12.447 0 00-2.112-.198c-.645 0-1.202.07-1.672.209-.469.14-.836.356-1.1.649-.264.293-.396.675-.396 1.144 0 .484.165.906.495 1.265.33.36.884.539 1.661.539zM221.315 45.6h1.826v7.634l-.374 3.872h-1.078l-.374-3.872V45.6zm-.374 14.388c0-.396.113-.708.34-.935.228-.227.532-.341.914-.341.396 0 .711.114.946.341.234.227.352.539.352.935 0 .381-.118.69-.352.924-.235.235-.55.352-.946.352-.382 0-.686-.117-.913-.352-.228-.235-.341-.543-.341-.924z"/><path id="Line" fill="#C06334" d="M17.5 8.5v17h6l-7 14-7-14h6v-17h2z"/><path id="Line-2" fill="#C06334" d="M112.5 8.5v17h6l-7 14-7-14h6v-17h2z"/><path id="Line-3" fill="#C06334" d="M144.5 8.5v17h6l-7 14-7-14h6v-17h2z"/><path id="Line-4" fill="#C06334" d="M218.5 8.5v17h6l-7 14-7-14h6v-17h2z"/></g></g></svg>
